Sources/FrostedUI/Resources/Icons.xcassets/documentPlus32.imageset/document-plus-32.svg

<svg width="32" height="32" viewBox="0 0 32 32" fill="none" xmlns="http://www.w3.org/2000/svg" data-fui-icon="true">
  <path
    d="M27 22.25C27.4142 22.25 27.75 22.5858 27.75 23V26.25H31C31.4142 26.25 31.75 26.5858 31.75 27C31.75 27.4142 31.4142 27.75 31 27.75H27.75V31C27.75 31.4142 27.4142 31.75 27 31.75C26.5858 31.75 26.25 31.4142 26.25 31V27.75H23C22.5858 27.75 22.25 27.4142 22.25 27C22.25 26.5858 22.5858 26.25 23 26.25H26.25V23C26.25 22.5858 26.5858 22.25 27 22.25ZM23.8125 3.4375C26.4361 3.4375 28.5623 5.56562 28.5625 8.18848V17.9688C28.5625 18.383 28.2267 18.7188 27.8125 18.7188C27.3983 18.7188 27.0625 18.383 27.0625 17.9688V8.18848C27.0623 6.39339 25.607 4.9375 23.8125 4.9375H8.375C6.58007 4.9375 5.125 6.39257 5.125 8.1875V23.8125C5.125 25.6075 6.58012 27.0625 8.375 27.0625H18.0469C18.4611 27.0625 18.7969 27.3983 18.7969 27.8125C18.7969 28.2267 18.4611 28.5625 18.0469 28.5625H8.375C5.7516 28.5625 3.625 26.4358 3.625 23.8125V8.1875C3.625 5.56415 5.75165 3.4375 8.375 3.4375H23.8125ZM16 20.583C16.414 20.5832 16.7499 20.919 16.75 21.333C16.75 21.7471 16.4141 22.0828 16 22.083H9.33301C8.91895 22.0828 8.58301 21.7471 8.58301 21.333C8.58312 20.919 8.91902 20.5832 9.33301 20.583H16ZM22.666 15.25C23.0802 15.25 23.416 15.5858 23.416 16C23.4159 16.4142 23.0802 16.75 22.666 16.75H9.33301C8.91899 16.7498 8.58307 16.414 8.58301 16C8.58301 15.5859 8.91895 15.2502 9.33301 15.25H22.666ZM22.666 9.91699C23.0802 9.91699 23.416 10.2528 23.416 10.667C23.4158 11.081 23.0801 11.417 22.666 11.417H9.33301C8.9191 11.4168 8.58325 11.0809 8.58301 10.667C8.58301 10.2529 8.91895 9.91718 9.33301 9.91699H22.666Z"
    fill="currentColor"
  />
</svg>

<svg xmlns="http://www.w3.org/2000/svg" width="32" height="32" fill="none" data-fui-icon="true" viewBox="0 0 32 32"><path fill="currentColor" d="M27 22.25a.75.75 0 0 1 .75.75v3.25H31a.75.75 0 0 1 0 1.5h-3.25V31a.75.75 0 0 1-1.5 0v-3.25H23a.75.75 0 0 1 0-1.5h3.25V23a.75.75 0 0 1 .75-.75M23.813 3.438a4.75 4.75 0 0 1 4.75 4.75v9.78a.75.75 0 0 1-1.5 0v-9.78a3.25 3.25 0 0 0-3.25-3.25H8.375a3.25 3.25 0 0 0-3.25 3.25v15.625a3.25 3.25 0 0 0 3.25 3.25h9.672a.75.75 0 0 1 0 1.5H8.375a4.75 4.75 0 0 1-4.75-4.75V8.188a4.75 4.75 0 0 1 4.75-4.75zM16 20.583a.75.75 0 0 1 0 1.5H9.333a.75.75 0 0 1 0-1.5zm6.666-5.333a.75.75 0 0 1 0 1.5H9.333a.75.75 0 0 1 0-1.5zm0-5.333a.75.75 0 0 1 0 1.5H9.333a.75.75 0 0 1 0-1.5z"/></svg>
